src/images/svg/mobile.svg

<svg width="48" height="47" viewBox="0 0 48 47" fill="none" xmlns="http://www.w3.org/2000/svg">
<g clip-path="url(#clip0)">
<path d="M44.3198 -0.187988H21.1928C19.6873 -0.187988 18.4626 1.0367 18.4626 2.54224V12.1155L1.28127 19.3269C1.08675 19.4085 0.954522 19.5921 0.939586 19.8026C0.924651 20.0132 1.02883 20.2142 1.20988 20.3228L3.40098 21.6342V35.6091C2.28052 35.8646 1.43973 36.8674 1.43973 38.0673V39.4143C1.43973 39.7233 1.69035 39.9739 1.99926 39.9739H5.92285C6.23175 39.9739 6.48237 39.7233 6.48237 39.4143V38.0673C6.48237 36.869 5.64144 35.8675 4.52003 35.6104V22.304L6.25251 23.3409C6.19925 23.7404 6.24577 22.6446 6.22774 29.8471C6.22774 32.2147 12.2922 33.483 18.4626 33.5557V44.4617C18.4626 45.0251 18.6351 45.549 18.93 45.9838C19.4207 46.7097 20.2512 47.1879 21.1914 47.1879H44.3183C45.8224 47.1879 47.046 45.964 47.046 44.4603C47.046 44.535 47.043 42.1501 47.046 2.5426C47.046 1.0575 45.818 -0.187988 44.3198 -0.187988ZM5.36332 38.0673V38.8548H2.55878V38.0673C2.55878 37.2921 3.18642 36.6612 3.95759 36.6612C4.73276 36.6612 5.36332 37.2921 5.36332 38.0673ZM44.3198 46.066H21.1928C20.6379 46.066 20.1477 45.7851 19.8578 45.3587C19.6842 45.102 19.5827 44.7927 19.5827 44.4603V40.6798H45.9241V44.4617C45.9241 45.3381 45.1938 46.066 44.3198 46.066ZM45.9241 39.5608H19.5816V33.559C22.5943 33.5245 31.8238 32.861 31.8238 29.8471C31.8204 25.3225 31.8318 23.4877 31.8096 23.3324L36.834 20.3228C37.015 20.2142 37.1192 20.0132 37.1043 19.8026C37.0893 19.5921 36.9571 19.4085 36.7626 19.3269L19.5816 12.1153V7.44208H45.9241V39.5608ZM19.0221 26.1322C15.9185 26.1322 9.94282 26.533 7.34679 28.2282C7.36326 23.0432 7.16689 23.3809 7.80541 22.9412C9.41805 21.7537 14.0305 20.9246 19.0221 20.9246C21.1993 20.9246 30.7047 21.5231 30.7047 23.5357V28.229C28.0844 26.518 22.139 26.1322 19.0221 26.1322ZM19.5827 2.5426C19.5827 1.6556 20.3044 0.933974 21.1914 0.933974H44.3183C45.2061 0.933974 45.9241 1.66572 45.9241 2.54224V6.32303H19.5827V2.5426ZM19.0221 13.0941L35.3106 19.9308L31.2746 22.3461C29.1289 20.2182 22.0309 19.8055 19.0221 19.8055C16.0094 19.8055 8.91093 20.2194 6.76978 22.3467L2.73254 19.9308L19.0221 13.0941ZM7.34679 29.8471C7.34679 28.9415 11.3567 27.2513 19.0221 27.2513C26.6923 27.2513 30.7047 28.9415 30.7047 29.8471C30.7047 30.7534 26.6923 32.4436 19.0221 32.4436C11.3567 32.4436 7.34679 30.7534 7.34679 29.8471Z" fill="#FF6B09"/>
<path d="M32.7549 41.5235C31.7345 41.5235 30.9044 42.3533 30.9044 43.374C30.9044 44.3947 31.7345 45.2252 32.7549 45.2252C33.7756 45.2252 34.6057 44.3947 34.6057 43.374C34.6057 42.3533 33.7756 41.5235 32.7549 41.5235ZM32.7549 44.1062C32.3516 44.1062 32.0234 43.7776 32.0234 43.374C32.0234 42.9704 32.3516 42.6425 32.7549 42.6425C33.1585 42.6425 33.4867 42.9704 33.4867 43.374C33.4867 43.7776 33.1585 44.1062 32.7549 44.1062Z" fill="#FF6B09"/>
<path d="M34.8892 3.06897H30.6206V4.18802H34.8892V3.06897Z" fill="#FF6B09"/>
</g>
<defs>
<clipPath id="clip0">
<rect width="48" height="47" fill="white"/>
</clipPath>
</defs>
</svg>

<svg xmlns="http://www.w3.org/2000/svg" fill="none" viewBox="0 0 48 47"><g fill="#FF6B09" clip-path="url(#clip0)"><path d="M44.32-.188H21.193a2.733 2.733 0 0 0-2.73 2.73v9.574L1.28 19.326a.559.559 0 0 0-.071.997L3.4 21.634V35.61a2.525 2.525 0 0 0-1.961 2.458v1.347c0 .31.25.56.56.56h3.923a.56.56 0 0 0 .56-.56v-1.347c0-1.198-.842-2.2-1.963-2.457V22.304l1.733 1.037c-.054.4-.007-.696-.025 6.506 0 2.368 6.064 3.636 12.235 3.709v10.906a2.727 2.727 0 0 0 2.729 2.726h23.126a2.73 2.73 0 0 0 2.728-2.728c0 .075-.003-2.31 0-41.917 0-1.486-1.228-2.731-2.726-2.731zM5.363 38.067v.788H2.56v-.788c0-.775.627-1.406 1.399-1.406.775 0 1.405.631 1.405 1.406zm38.957 7.999H21.193c-.555 0-1.045-.28-1.335-.707a1.599 1.599 0 0 1-.275-.899v-3.78h26.341v3.782c0 .876-.73 1.604-1.604 1.604zm1.604-6.505H19.582v-6.002c3.012-.034 12.242-.698 12.242-3.712-.004-4.524.008-6.36-.014-6.515l5.024-3.01a.56.56 0 0 0-.071-.995l-17.181-7.212V7.442h26.342v32.119zM19.022 26.132c-3.103 0-9.08.401-11.675 2.096.016-5.185-.18-4.847.458-5.287 1.613-1.187 6.226-2.016 11.217-2.016 2.177 0 11.683.598 11.683 2.61v4.694c-2.62-1.711-8.566-2.097-11.683-2.097zm.56-23.59a1.61 1.61 0 0 1 1.61-1.608h23.126c.888 0 1.606.732 1.606 1.608v3.781H19.583v-3.78zm-.56 10.552l16.289 6.837-4.036 2.415c-2.146-2.128-9.244-2.54-12.253-2.54-3.013 0-10.111.413-12.252 2.54l-4.037-2.415 16.29-6.837zM7.347 29.847c0-.905 4.01-2.596 11.675-2.596 7.67 0 11.683 1.69 11.683 2.596 0 .906-4.013 2.597-11.683 2.597-7.665 0-11.675-1.69-11.675-2.597z"/><path d="M32.755 41.523c-1.02 0-1.85.83-1.85 1.851 0 1.02.83 1.851 1.85 1.851s1.85-.83 1.85-1.851c0-1.02-.83-1.85-1.85-1.85zm0 2.583a.733.733 0 0 1 0-1.464.732.732 0 0 1 0 1.464zM34.89 3.069h-4.27v1.119h4.27V3.069z"/></g><defs><clipPath id="clip0"><path fill="#fff" d="M0 0h48v47H0z"/></clipPath></defs></svg>
